Kaze-dark-colors/24x24/actions/document-save-as.svg

<?xml version="1.0" encoding="UTF-8" standalone="no"?>
<svg xmlns:inkscape="http://www.inkscape.org/namespaces/inkscape" xmlns:sodipodi="http://sodipodi.sourceforge.net/DTD/sodipodi-0.dtd" xmlns="http://www.w3.org/2000/svg" xmlns:svg="http://www.w3.org/2000/svg" width="24" height="24" viewBox="0 0 24 24" fill="none" version="1.1" id="svg4" sodipodi:docname="document-save-as.svg" inkscape:version="1.4 (e7c3feb100, 2024-10-09)">
  <defs id="defs1">
    <style id="current-color-scheme" type="text/css">
      .ColorScheme-Text { color:#e6f0f5; }
      .ColorScheme-Highlight { color:#2179cb; }
      .ColorScheme-Background { color:#e4e4e4; }
    </style>
  </defs>
  <sodipodi:namedview id="namedview4" pagecolor="#ffffff" bordercolor="#ffffff" borderopacity="0.25" inkscape:showpageshadow="2" inkscape:pageopacity="0.0" inkscape:pagecheckerboard="0" inkscape:deskcolor="#d1d1d1" inkscape:zoom="33.291667" inkscape:cx="11.984981" inkscape:cy="12" inkscape:window-width="1920" inkscape:window-height="1008" inkscape:window-x="0" inkscape:window-y="0" inkscape:window-maximized="1" inkscape:current-layer="svg4"/>
  <g clip-path="url(#clip0_3037_253)" id="g4">
    <path id="path3" d="M 12,20 H 7 v -6 c 0,-0.5523 0.44771,-1 1,-1 h 8 c 0.5523,0 1,0.4477 1,1 v 0.5 M 8,4 h 7 c 0.5523,0 1,0.44772 1,1 v 3 c 0,0.55228 -0.4477,1 -1,1 H 9 C 8.44772,9 8,8.55228 8,8 Z m 4,16 H 6 C 4.89543,20 4,19.1046 4,18 V 6 C 4,4.89543 4.89543,4 6,4 h 9.1716 c 0.5304,0 1.0391,0.21071 1.4142,0.58579 l 2.8284,2.82842 C 19.7893,7.78929 20,8.29799 20,8.82843 V 12" style="stroke:#ffffff;stroke-opacity:1;stroke-linecap:round;stroke-linejoin:round;stroke-width:1.2;stroke-dasharray:none"/>
    <path d="M14.2929 19.7071L19.2929 14.7071C19.6834 14.3166 20.3166 14.3166 20.7071 14.7071L21.2929 15.2929C21.6834 15.6834 21.6834 16.3166 21.2929 16.7071L16.2929 21.7071C16.1054 21.8946 15.851 22 15.5858 22H15C14.4477 22 14 21.5523 14 21V20.4142C14 20.149 14.1054 19.8946 14.2929 19.7071Z" stroke="#ffffff" stroke-width="1.2" stroke-linecap="round" id="path4"/>
    <path id="path3" d="M 12,20 H 7 v -6 c 0,-0.5523 0.44771,-1 1,-1 h 8 c 0.5523,0 1,0.4477 1,1 v 0.5 M 8,4 h 7 c 0.5523,0 1,0.44772 1,1 v 3 c 0,0.55228 -0.4477,1 -1,1 H 9 C 8.44772,9 8,8.55228 8,8 Z m 4,16 H 6 C 4.89543,20 4,19.1046 4,18 V 6 C 4,4.89543 4.89543,4 6,4 h 9.1716 c 0.5304,0 1.0391,0.21071 1.4142,0.58579 l 2.8284,2.82842 C 19.7893,7.78929 20,8.29799 20,8.82843 V 12" style="stroke:currentColor;opacity:0.5;stroke-linecap:round;stroke-linejoin:round;stroke-width:1.2;stroke-dasharray:none" class="ColorScheme-Highlight"/>
    <path d="M14.2929 19.7071L19.2929 14.7071C19.6834 14.3166 20.3166 14.3166 20.7071 14.7071L21.2929 15.2929C21.6834 15.6834 21.6834 16.3166 21.2929 16.7071L16.2929 21.7071C16.1054 21.8946 15.851 22 15.5858 22H15C14.4477 22 14 21.5523 14 21V20.4142C14 20.149 14.1054 19.8946 14.2929 19.7071Z" style="stroke:currentColor;opacity:0.5" class="ColorScheme-Highlight" stroke-width="1.2" stroke-linecap="round" id="path4"/>
  </g>
  <defs id="defs4">
    <clipPath id="clip0_3037_253">
      <rect width="24" height="24" fill="white" id="rect4"/>
    </clipPath>
  </defs>
</svg>

<svg width="24" height="24" viewBox="0 0 24 24" fill="none" xmlns="http://www.w3.org/2000/svg">
<g clip-path="url(#clip0_3037_253)">
<path d="M12 20H6C4.89543 20 4 19.1046 4 18V6C4 4.89543 4.89543 4 6 4H15.1716C15.702 4 16.2107 4.21071 16.5858 4.58579L19.4142 7.41421C19.7893 7.78929 20 8.29799 20 8.82843V12" stroke="#DDDDDD" stroke-width="1.2" stroke-linecap="round"/>
<path d="M8 4H15C15.5523 4 16 4.44772 16 5V8C16 8.55228 15.5523 9 15 9H9C8.44772 9 8 8.55228 8 8V4Z" stroke="#DDDDDD" stroke-width="1.2"/>
<path d="M12 20L7 20L7 14C7 13.4477 7.44771 13 8 13L16 13C16.5523 13 17 13.4477 17 14L17 14.5" stroke="#DDDDDD" stroke-width="1.2" stroke-linecap="round"/>
<path d="M14.2929 19.7071L19.2929 14.7071C19.6834 14.3166 20.3166 14.3166 20.7071 14.7071L21.2929 15.2929C21.6834 15.6834 21.6834 16.3166 21.2929 16.7071L16.2929 21.7071C16.1054 21.8946 15.851 22 15.5858 22H15C14.4477 22 14 21.5523 14 21V20.4142C14 20.149 14.1054 19.8946 14.2929 19.7071Z" stroke="#DDDDDD" stroke-width="1.2" stroke-linecap="round"/>
</g>
<defs>
<clipPath id="clip0_3037_253">
<rect width="24" height="24" fill="white"/>
</clipPath>
</defs>
</svg>
